lib/svgs/evernote.svg

<?xml version="1.0" encoding="UTF-8" standalone="no"?>
<svg width="20px" height="20px" viewBox="0 0 20 20" version="1.1" xmlns="http://www.w3.org/2000/svg" xmlns:xlink="http://www.w3.org/1999/xlink">
    <defs></defs>
    <g id="Icons" stroke="none" stroke-width="1" fill="none" fill-rule="evenodd">
        <g id="Web" transform="translate(-241.000000, -988.000000)" fill="#000000">
            <g id="brand/evernote" transform="translate(241.000000, 988.000000)">
                <path d="M15.71888,4.15632 C15.4376,3.68752 13.9376,3.12496 13.18752,3.12496 L11.21888,3.12496 C11.21888,3.12496 10.56256,2 9.09376,2 C7.59376,2 7.68752,2.65632 7.68752,3.21872 L7.68752,5.4688 L7,6.15632 L3.87504,6.15632 C3.87504,6.15632 3,6.75008 3,7.9688 C3,9.18752 3.40624,13.5 6.03136,13.87504 C9.12512,14.37504 9.65632,12.93744 9.65632,12.78128 L9.65632,10.9688 C9.65632,10.9688 10.59376,12.68752 11.9376,12.68752 C13.31248,12.68752 14.12512,13.43744 14.12512,14.24992 L14.12512,15.71872 C14.12512,15.71872 14.06256,16.62496 13.25008,16.62496 L11.53136,16.62496 C11.53136,16.62496 10.9688,16.21872 10.9688,15.59376 C10.9688,15 11.25008,14.84368 11.56256,14.84368 C11.90624,14.84368 12.15632,14.87504 12.15632,14.87504 L12.15632,13.62496 C12.15632,13.62496 9.56256,13.62496 9.56256,15.56256 C9.56256,17.5 10.9376,18 12,18 L13.78128,18 C13.78128,18 17,17.59376 17,11.40624 C17,5.21872 16,4.62496 15.71888,4.15632 L15.71888,4.15632 L15.71888,4.15632 M12.53136,9.71872 C12.53136,9.71872 12.68752,8.68752 13.28128,8.68752 C13.87504,8.68752 14.71888,10.06256 14.71888,10.06256 C14.71888,10.06256 12.81264,9.71872 12.53136,9.71872 L12.53136,9.71872 L12.53136,9.71872 M6.31248,5.4688 L3.68752,5.4688 L7,2.18752 L7,4.81248 L6.31248,5.4688 L6.31248,5.4688" id="Shape"></path>
            </g>
        </g>
    </g>
</svg>

<svg xmlns="http://www.w3.org/2000/svg" viewBox="0 0 20 20">
    <path fill="#000" fill-rule="evenodd" d="M15.719 4.156c-.281-.468-1.781-1.031-2.531-1.031h-1.97S10.564 2 9.095 2c-1.5 0-1.406.656-1.406 1.219v2.25L7 6.156H3.875S3 6.75 3 7.97c0 1.219.406 5.531 3.031 5.906 3.094.5 3.625-.938 3.625-1.094V10.97s.938 1.719 2.282 1.719c1.374 0 2.187.75 2.187 1.562v1.469s-.062.906-.875.906h-1.719s-.562-.406-.562-1.031c0-.594.281-.75.594-.75.343 0 .593.031.593.031v-1.25s-2.593 0-2.593 1.938C9.563 17.5 10.938 18 12 18h1.781S17 17.594 17 11.406c0-6.187-1-6.781-1.281-7.25M12.53 9.72s.157-1.031.75-1.031c.594 0 1.438 1.375 1.438 1.375s-1.906-.344-2.188-.344m-6.219-4.25H3.688L7 2.188v2.624l-.688.657"/>
</svg>
